X: 30276
T: Old Lucy Campbell
R: reel
M: 4/4
K: Dmajor
A2{c}AF .A/.c/A {c}AF|.A/.c/A {c}AF B2E2|BA{c}AF ABde|dBAF .A/.c/A D2|
A2{c}AF .A.A{c}AF|.A.A{c}AF B2E2|BA{c}AF ABde|dBAF .A/.c/A D2||
dBAB defe|dBAF .B/.c/B E2|dBAB defe|dBAF .A/.c/A D2|
dBAB defe|dBAF .B/.c/B E2|dBAB defe|dBAF A2D2||

